X: 15310
T: Girls Of Knocknagow, The
R: jig
M: 6/8
K: Aminor
|:E|"Am"EAA EAB|"C"cde g2 e|"G"ded cBA|"Em"G3 BGD|
"Am"EAA EAB|"C"cde g2 e|"G"ded BAG|"Am"A3 A2:|
|:B|"C"c2 E Gce|g2 e cde|"G"ded GAB|dBG "Em"GAB|
"C"c2 E Gce|g2 e cde|"G"ded BAG|"Am"A3 A2:|

